packages/kaspersky-hexa-ui-icons/src/iconsSVGs/48/Search.svg

<svg xmlns="http://www.w3.org/2000/svg" width="48" height="48" fill="none" viewBox="0 0 48 48"><path fill="#000" fill-rule="evenodd" d="M0 18C0 8.0589 8.0589 0 18 0s18 8.0589 18 18c0 4.6107-1.7336 8.8166-4.5845 12.0013l2.7058 2.7058.7071-.7071c.7811-.7811 2.0474-.7811 2.8285 0l8.1718 8.1719c1.5621 1.5621 1.5621 4.0947 0 5.6568s-4.0947 1.5621-5.6568 0L32 37.6569c-.781-.7811-.781-2.0474 0-2.8285l.7071-.7071-2.7058-2.7058C26.8166 34.2664 22.6107 36 18 36 8.0589 36 0 27.9411 0 18M18 2C9.1634 2 2 9.1634 2 18s7.1634 16 16 16 16-7.1634 16-16S26.8366 2 18 2m15.4142 34.2426 2.8284-2.8284 8.1719 8.1719c.7811.781.7811 2.0474 0 2.8284-.781.7811-2.0474.7811-2.8284 0z"/></svg>

<svg width="48" height="48" viewBox="0 0 48 48" fill="none" xmlns="http://www.w3.org/2000/svg">
<path fill-rule="evenodd" clip-rule="evenodd" d="M0 18C0 8.05887 8.05887 0 18 0C27.9411 0 36 8.05887 36 18C36 22.6107 34.2664 26.8166 31.4155 30.0013L34.1213 32.7071L34.8284 32C35.6095 31.2189 36.8758 31.2189 37.6569 32L45.8287 40.1719C47.3908 41.734 47.3908 44.2666 45.8287 45.8287C44.2666 47.3908 41.734 47.3908 40.1719 45.8287L32 37.6569C31.219 36.8758 31.219 35.6095 32 34.8284L32.7071 34.1213L30.0013 31.4155C26.8166 34.2664 22.6107 36 18 36C8.05887 36 0 27.9411 0 18ZM18 2C9.16344 2 2 9.16344 2 18C2 26.8366 9.16344 34 18 34C26.8366 34 34 26.8366 34 18C34 9.16344 26.8366 2 18 2ZM33.4142 36.2426L36.2426 33.4142L44.4145 41.5861C45.1956 42.3671 45.1956 43.6335 44.4145 44.4145C43.6335 45.1956 42.3671 45.1956 41.5861 44.4145L33.4142 36.2426Z" fill="black"/>
</svg>
